brandFactory_export/3.Masa/Casino_3Masa.svg

<?xml version="1.0" encoding="UTF-8"?>
<svg width="24px" height="24px" viewBox="0 0 24 24" version="1.1" xmlns="http://www.w3.org/2000/svg" xmlns:xlink="http://www.w3.org/1999/xlink">
    <title>3.Masa/Casino_3Masa</title>
    <g id="Symbols" stroke="none" stroke-width="1" fill="none" fill-rule="evenodd">
        <g id="3.Masa/Casino_3Masa" fill="#5CB615" fill-rule="nonzero">
            <path d="M20.7563025,19.7428571 C21.5529412,18.6907563 22.0033613,17.2789916 22.1008403,15.5310924 L20.4336134,15.5310924 C20.3361345,16.7008403 20.0168067,17.6823529 19.4689076,18.4521008 L20.7563025,19.7428571 L20.7563025,19.7428571 Z M17.9260504,18.0151261 C18.6386555,17.3260504 19.0016807,16.2369748 19.0016807,14.7714286 C19.0016807,13.3058824 18.6386555,12.2134454 17.9226891,11.5210084 C17.8386555,11.4403361 17.7310924,11.3764706 17.6369748,11.3092437 C17.5428571,12.2336134 17.3613445,13.0806723 17.0789916,13.8436975 C16.6823529,14.9159664 16.1042017,15.8268908 15.3378151,16.5630252 C14.9277311,16.9563025 14.4672269,17.292437 13.9596639,17.5781513 C13.3815126,17.907563 12.7394958,18.1630252 12.0369748,18.3546218 C12.7092437,18.7882353 13.610084,19.0168067 14.7495798,19.0168067 C16.1647059,19.0168067 17.2336134,18.6806723 17.9260504,18.0151261 Z M14.0168067,22.1226891 L14.0168067,20.4554622 C12.8537815,20.3613445 11.8756303,20.0453782 11.1058824,19.5042017 L9.80840336,20.8016807 C10.8638655,21.5848739 12.2756303,22.0285714 14.0168067,22.1226891 L14.0168067,22.1226891 Z M8.85714286,14.1361345 C8.93781513,14.1361345 9.00168067,14.1226891 9.0789916,14.1226891 C9.39495798,14.112605 9.69411765,14.092437 9.9697479,14.0487395 C10.1815126,14.0151261 10.3831933,13.9714286 10.5714286,13.9176471 C11.1630252,13.7495798 11.6537815,13.4941176 12.0268908,13.1378151 C12.594958,12.589916 12.9310924,11.7798319 13.0487395,10.7411765 C13.0789916,10.4722689 13.102521,10.1966387 13.102521,9.89747899 C13.102521,9.65882353 13.0789916,9.44033613 13.0588235,9.22184874 C13.0016807,8.58655462 12.8638655,8.04201681 12.6453782,7.57815126 C12.4806723,7.22184874 12.2823529,6.89915966 12.0201681,6.64705882 C11.8857143,6.51596639 11.7210084,6.40840336 11.5563025,6.30084034 C10.8806723,5.86722689 9.97983193,5.63865546 8.84705882,5.63865546 C7.43865546,5.63865546 6.37310924,5.97815126 5.68403361,6.64705882 C4.97142857,7.33613445 4.60840336,8.43193277 4.60840336,9.89747899 C4.60840336,11.3630252 4.96806723,12.4554622 5.68067227,13.1411765 C5.76806723,13.2252101 5.87563025,13.2857143 5.97647059,13.3630252 C6.36638655,13.6521008 6.84369748,13.8605042 7.40840336,13.9848739 C7.51596639,14.0084034 7.61680672,14.0352941 7.73109244,14.0554622 C8.08739496,14.0991597 8.45042017,14.1361345 8.85714286,14.1361345 L8.85714286,14.1361345 Z M8.11764706,17.2420168 L8.11764706,15.5714286 C7.9394958,15.5546218 7.74117647,15.5579832 7.57310924,15.5310924 C7.51596639,15.5243697 7.46890756,15.5042017 7.41512605,15.4941176 C6.88067227,15.4033613 6.40672269,15.2453782 5.96638655,15.0470588 C5.94957983,15.0403361 5.92941176,15.0302521 5.91596639,15.0235294 C5.66386555,14.9058824 5.42521008,14.7714286 5.20672269,14.6201681 L3.9092437,15.9210084 C4.51428571,16.3714286 5.24033613,16.7042017 6.07394958,16.9260504 C6.55798319,17.0571429 7.0789916,17.1478992 7.63697479,17.2016807 C7.79831933,17.2151261 7.95630252,17.2319328 8.11764706,17.2420168 L8.11764706,17.2420168 Z M1.51932773,9.16470588 L3.18655462,9.16470588 C3.28067227,7.98823529 3.58991597,7 4.13445378,6.22352941 L2.84705882,4.93277311 C2.0605042,5.99495798 1.61344538,7.41008403 1.51932773,9.16470588 Z M9.60336134,2.52605042 L9.60336134,4.19663866 C10.7798319,4.29411765 11.7613445,4.62016807 12.5344538,5.17478992 L13.8319328,3.87731092 C12.7731092,3.07394958 11.3546218,2.62352941 9.60336134,2.52605042 Z M14.5378151,10.6504202 C14.507563,11.0268908 14.4504202,11.3831933 14.3731092,11.7193277 C14.2084034,12.4252101 13.9428571,13.0470588 13.5731092,13.5714286 L14.1310924,14.1294118 L14.8605042,14.8621849 C15.0420168,14.6201681 15.2067227,14.3579832 15.3512605,14.0789916 C15.6033613,13.594958 15.8084034,13.0638655 15.9529412,12.4689076 C16.0840336,11.9176471 16.1680672,11.3226891 16.205042,10.6773109 L16.205042,10.6504202 L14.5378151,10.6504202 L14.5378151,10.6504202 Z M19.7310924,8.76134454 C19.1226891,8.29747899 18.3865546,7.96134454 17.5462185,7.73277311 C17.6436975,8.32773109 17.6941176,8.96302521 17.707563,9.63529412 C17.9697479,9.75630252 18.2117647,9.89747899 18.4369748,10.0554622 L19.7310924,8.76134454 L19.7310924,8.76134454 Z M21.2403361,8.09915966 C22.8134454,9.61848739 23.6134454,11.8672269 23.6134454,14.7781513 C23.6134454,17.6890756 22.8134454,19.9310924 21.2369748,21.4470588 C19.7277311,22.8991597 17.5428571,23.6352941 14.7462185,23.6352941 C11.9495798,23.6352941 9.76806723,22.8991597 8.26554622,21.4436975 C7.45882353,20.6672269 6.86386555,19.6957983 6.46722689,18.5361345 C4.79327731,18.2268908 3.41176471,17.5714286 2.36638655,16.5596639 C0.8,15.0504202 0.00672268908,12.805042 0.00672268908,9.89411765 C0.00672268908,6.98319328 0.8,4.73445378 2.36638655,3.21848739 C3.87226891,1.75294118 6.05378151,1.01344538 8.85042017,1.01344538 C11.6436975,1.01344538 13.8285714,1.75294118 15.3411765,3.21512605 C16.1478992,3.99159664 16.7462185,4.96302521 17.1428571,6.11260504 C18.8134454,6.42857143 20.194958,7.08739496 21.2403361,8.09915966 Z M10.7865546,11.1747899 C10.5512605,11.5243697 10.3327731,11.7932773 10.0067227,12.1361345 C9.94957983,12.1932773 9.78823529,12.3546218 9.65378151,12.4521008 C9.51596639,12.5529412 9.36134454,12.6201681 9.2,12.6638655 C9.17310924,12.6705882 9.15294118,12.6840336 9.12268908,12.687395 C9.07563025,12.7008403 9.00504202,12.7109244 8.93109244,12.7176471 L8.86386555,12.7210084 L8.7697479,12.7176471 C8.71260504,12.7142857 8.64201681,12.7042017 8.57815126,12.687395 C8.41344538,12.6504202 8.23193277,12.5697479 8.07058824,12.4554622 C7.94621849,12.3647059 7.81176471,12.2336134 7.7512605,12.1731092 C7.74453782,12.1663866 7.72436975,12.1495798 7.7210084,12.1462185 C7.34789916,11.7596639 7.11260504,11.4672269 6.83361345,11.0302521 C6.79663866,10.9697479 6.7697479,10.9092437 6.73277311,10.8487395 C6.4302521,10.3478992 6.20840336,9.84369748 6.0907563,9.34957983 C5.9092437,8.58655462 6.09411765,7.90084034 6.59159664,7.47394958 C6.88067227,7.22521008 7.26386555,7.07394958 7.67394958,7.05378151 C8.08403361,7.03361345 8.48739496,7.13109244 8.8605042,7.3394958 C9.23361345,7.13445378 9.64369748,7.03361345 10.0436975,7.05378151 C10.0739496,7.05714286 10.1042017,7.06722689 10.1378151,7.07058824 C10.5109244,7.11092437 10.8605042,7.24201681 11.1294118,7.47058824 C11.297479,7.61512605 11.4151261,7.79663866 11.5092437,7.98823529 C11.697479,8.37478992 11.7512605,8.83865546 11.6302521,9.34621849 C11.6067227,9.44369748 11.5596639,9.54117647 11.5294118,9.64201681 C11.4521008,9.89747899 11.3512605,10.1529412 11.2201681,10.4084034 C11.1193277,10.6134454 11.0184874,10.8184874 10.887395,11.0235294 C10.8537815,11.0773109 10.8201681,11.1243697 10.7865546,11.1747899 L10.7865546,11.1747899 Z" id="Casino_3Masa"></path>
        </g>
    </g>
</svg>

<svg width="24" height="24" viewBox="0 0 24 24" xmlns="http://www.w3.org/2000/svg"><path d="M20.756 19.743c.797-1.052 1.247-2.464 1.345-4.212h-1.667c-.098 1.17-.417 2.151-.965 2.921l1.287 1.29zm-2.83-1.728c.713-.689 1.076-1.778 1.076-3.244 0-1.465-.363-2.558-1.08-3.25-.083-.08-.19-.145-.285-.212-.094.925-.276 1.772-.558 2.535-.397 1.072-.975 1.983-1.741 2.719-.41.393-.87.73-1.378 1.015-.578.33-1.22.585-1.923.777.672.433 1.573.662 2.713.662 1.415 0 2.484-.336 3.176-1.002zm-3.91 4.108v-1.668c-1.162-.094-2.14-.41-2.91-.95l-1.298 1.297c1.056.783 2.468 1.227 4.209 1.32zm-5.159-7.987c.08 0 .145-.013.222-.013.316-.01.615-.03.89-.074.213-.034.414-.078.602-.131.592-.168 1.083-.424 1.456-.78.568-.548.904-1.358 1.022-2.397a7.42 7.42 0 00.054-.844c0-.238-.024-.457-.044-.675-.057-.635-.195-1.18-.414-1.644-.164-.356-.363-.679-.625-.93a3.029 3.029 0 00-.464-.347c-.675-.434-1.576-.662-2.709-.662-1.408 0-2.474.34-3.163 1.008-.713.69-1.076 1.785-1.076 3.25 0 1.466.36 2.558 1.073 3.244.087.084.195.145.295.222.39.29.868.498 1.432.622.108.023.209.05.323.07.356.044.72.081 1.126.081zm-.74 3.106v-1.67c-.178-.017-.376-.014-.544-.04-.057-.008-.104-.028-.158-.038a5.89 5.89 0 01-1.499-.47 4.85 4.85 0 01-.71-.404L3.91 15.921c.605.45 1.331.783 2.165 1.005a9.446 9.446 0 001.563.276c.161.013.32.03.48.04zM1.52 9.165h1.668C3.28 7.988 3.59 7 4.134 6.224L2.847 4.933C2.061 5.995 1.613 7.41 1.52 9.165zm8.084-6.639v1.67c1.177.098 2.158.424 2.931.979l1.298-1.298c-1.059-.803-2.477-1.253-4.229-1.35zm4.935 8.124c-.03.377-.088.733-.165 1.07-.165.705-.43 1.327-.8 1.851l.558.558.73.733c.181-.242.346-.504.49-.783a7.075 7.075 0 00.602-1.61c.131-.551.215-1.146.252-1.792v-.027h-1.667zm5.193-1.889c-.608-.464-1.344-.8-2.185-1.028.098.595.148 1.23.162 1.902.262.121.504.262.729.42l1.294-1.294zm1.51-.662c1.572 1.52 2.372 3.768 2.372 6.68 0 2.91-.8 5.152-2.376 6.668-1.51 1.452-3.694 2.188-6.49 2.188-2.797 0-4.979-.736-6.481-2.191-.807-.777-1.402-1.748-1.799-2.908-1.674-.31-3.055-.965-4.1-1.976C.8 15.05.006 12.805.006 9.894c0-2.91.793-5.16 2.36-6.676C3.871 1.753 6.053 1.013 8.85 1.013c2.794 0 4.979.74 6.491 2.202.807.777 1.405 1.748 1.802 2.898 1.67.316 3.052.974 4.097 1.986zm-10.454 3.076c-.236.35-.454.618-.78.961-.057.057-.219.219-.353.316-.138.1-.293.168-.454.212-.027.007-.047.02-.077.023a1.148 1.148 0 01-.192.03l-.067.004-.094-.003a1.026 1.026 0 01-.192-.03 1.459 1.459 0 01-.507-.233 3.043 3.043 0 01-.32-.282c-.006-.007-.027-.023-.03-.027a6.47 6.47 0 01-.887-1.116c-.037-.06-.064-.12-.101-.181a5.324 5.324 0 01-.642-1.5c-.182-.762.003-1.448.5-1.875.29-.249.673-.4 1.083-.42.41-.02.813.077 1.187.285a2.234 2.234 0 011.183-.285c.03.003.06.013.094.017.373.04.723.171.991.4.168.144.286.326.38.517.188.387.242.85.121 1.358-.023.098-.07.195-.1.296-.078.255-.179.51-.31.766-.1.205-.202.41-.333.616-.033.053-.067.1-.1.15z" fill="#5CB615" fill-rule="nonzero"/></svg>
